!!!SOCIAL_FUNCTION:	war songs
!!!PDT:	1943
!!!OTL: No_31_Song_When_Carrying_Heads_of_the_Enemy_on_Poles_(b).krn
!!!REG: British Columbia
**kern	**kern
*staff2	*staff1
=1-	=1-
*clefF4	*clefF4
*k[b-e-a-d-g-]	*k[b-e-a-d-g-]
*M2/4	*M2/4
2r	4B-\
.	8r
.	8d-\
=2	=2
2r	4d-\
.	8r
.	8d-\
=3	=3
2r	4d-\
.	4d-\
=4||	=4||
*M3/4	*M3/4
2.r	8e-\L
.	8e-\J
.	4d-\
.	8r
.	8d-\
=5	=5
2.r	8d-\
.	8r
.	8d-\
.	8r
.	8d-\
.	8r
=6	=6
2.r	4B-\
.	8r
.	8d-\
.	12f\L
.	24e-\Jk
.	24r
.	12d-\
=7||	=7||
*M2/4	*M2/4
2r	8d-\
.	8r
.	8d-\
.	8r
=8||	=8||
*M3/4	*M3/4
2.r	8e-\L
.	8e-\J
.	4d-\
.	8r
.	8d-\
=9	=9
2.r	8d-\
.	8r
.	8d-\
.	8r
.	8d-\
.	8r
=10	=10
8GG-/	8e-\L
8r	8d-\J
8GG-/	8d-\L
8r	8d-\J
8r	8.d-\L
8r	.
.	16B-\Jk
=11||	=11||
*M2/4	*M2/4
8GG-/	4B-\
8r	.
8r	4d-\
8r	.
=12||	=12||
*M3/4	*M3/4
8GG-/	8d-\L
8r	8B-\J
8r	8B-\L
8r	8B-\J
8GG-/	8A-\L
8r	8A-\J
=13||	=13||
*M2/4	*M2/4
8r	4B-\
8r	.
8GG-/	8B-\
8r	8r
=14||	=14||
*M3/4	*M3/4
8r	4.F\
8GG-/	.
8r	.
8r	8B-\
8r	8A-\
8GG-/	16r
.	16F\
=15	=15
8GG-/	8E-\L
8r	8D-\J
8GG-/	8E-\
8r	8r
8GG-/	8E-\
8r	8r
=16||	=16||
*M2/4	*M2/4
8r	4A-\
8GG-/	.
8GG-/	8r
8r	8F\
=17	=17
8GG-/	4E-\
8r	.
8GG-/	8r
8r	8D-\
=18	=18
8GG-/	4D-\
8r	.
8GG-/	4D-\
8r	.
=19||	=19||
*M3/4	*M3/4
8GG-/	8F\L
8r	8E-\J
8GG-/	4D-\
8r	.
8GG-/	12D-\L
.	12D-\
8r	.
.	12BB-\J
=20	=20
8GG-/	4D-\
8r	.
8GG-/	4D-\
8r	.
4r	4r
==	==
*-	*-
